src/16/panel/btsync-gui-4.svg

<svg xmlns="http://www.w3.org/2000/svg" width="16" height="16" version="1.1">
 <defs>
  <style id="current-color-scheme" type="text/css">
   .ColorScheme-Text { color:#dfdfdf; } .ColorScheme-Highlight { color:#4285f4; }
  </style>
 </defs>
 <path style="fill:currentColor" class="ColorScheme-Text" d="M 11.5,1.9378221 C 8.1521624,0.00494705 3.8706974,1.1521622 1.9378222,4.5 0.00494718,7.8478376 1.1521622,12.129303 4.5,14.062178 7.8478378,15.995052 12.129304,14.847838 14.062178,11.5 15.995053,8.1521622 14.847838,3.8706971 11.5,1.9378221 Z m -1,1.7320509 c 2.094918,1.2095014 2.983854,3.7061532 2.243863,5.9142969 l 0.952289,0.5498041 -3.23205,1.598077 -0.232051,-3.5980763 0.707028,0.4082026 C 11.162705,7.3285969 10.62974,6.054179 9.5000002,5.4019237 8.8814538,5.046257 8.1563931,4.9226947 7.4549585,5.0534147 L 6.4204951,3.2631267 C 7.7759564,2.8093509 9.2608194,2.9573989 10.5,3.669873 Z M 5.5358984,4.2679491 5.7679493,7.8660253 5.0609204,7.4578225 c -0.2236266,1.2135804 0.3093403,2.4879981 1.4390797,3.1402545 0.6185453,0.355666 1.343607,0.479228 2.0450422,0.348509 l 1.0344631,1.790287 C 8.2240437,13.190649 6.7391962,13.042574 5.5000001,12.330127 3.4050812,11.120626 2.5161466,8.6239737 3.2561367,6.4158305 L 2.3038478,5.8660254 5.5358984,4.2679491 Z"/>
</svg>

<svg xmlns="http://www.w3.org/2000/svg" width="16" height="16"><defs><style id="current-color-scheme" type="text/css">.ColorScheme-Text{color:#dfdfdf;}.ColorScheme-Highlight{color:#5294e2;}</style></defs><defs><style id="current-color-scheme" type="text/css"></style></defs><path d="M11.5 1.938a7 7 0 1 0-7 12.125 7 7 0 0 0 7-12.125zm-1 1.732a5.002 5.002 0 0 1 2.244 5.914l.952.55-3.232 1.598-.232-3.598.707.408A2.99 2.99 0 0 0 9.5 5.402a3 3 0 0 0-2.045-.349L6.42 3.263a5 5 0 0 1 4.08.407zm-4.964.598l.232 3.598-.707-.408a2.99 2.99 0 0 0 1.439 3.14 3 3 0 0 0 2.045.349l1.035 1.79a5 5 0 0 1-4.08-.407 5.002 5.002 0 0 1-2.244-5.914l-.952-.55 3.232-1.598z" fill="currentColor" class="ColorScheme-Text"/></svg>
